X: 224
T:Ghillie Callum
G:set dance
M:C|
L:1/8
Q:1/4=120
K:AMix
A<Ac>A d2B<G|A<Ac>A e2 c<A|e2c<A  d2 B<G|A<Ac>A d<Be2:|
A<Ac>A g2B<G|A<Ac>e a>ba>f|g>ag>e d<gB<G|A<Ac>A d<Be2 |
A<Ac>A g2B<G|A<Ac>e a>ba>f|g<be<g d<gB<G|A<ag>e d<Be2|]

This Lowland ballad tune (in an over-complicated 19th century transcription)
does the same:

